client/src/assets/images/ClassicIcon.svg

<svg xmlns="http://www.w3.org/2000/svg" width="291" height="287" fill="none"><path fill="#EDEDED" d="M164 41h20v20h-20V41Zm0 20h20v20h-20V61Zm20 20h20v20h-20V81Zm0-20h20v20h-20V61Zm20 20h20v20h-20V81Zm0 20h20v20h-20v-20Zm-20 0h20v20h-20v-20Zm-20-20h20v20h-20V81Zm-20-20h20v20h-20V61Zm0-20h20v20h-20V41Z"/><path stroke="#EDEDED" stroke-width="5" d="M164 41h20v20m-20-20v20m0-20h-20v20m40 0h-20m20 0v20m0-20h20v20m-40-20v20m0-20h-20m40 20h-20m20 0h20m-20 0v20m-20-20v20h20m-20-20h-20V61m60 20v20m0-20h20v20m-20 0h-20m20 0h20m-20 0v20m-20-20v20h20m20-20v20h-20"/><path fill="#949494" d="M44 61h20v20H44V61ZM24 81h20v20H24V81Zm0 60h20v20H24v-20Zm0 20h20v20H24v-20Zm0 20h20v20H24v-20Zm100 60h20v20h-20v-20Zm60 0h20v20h-20v-20Zm-20 0h20v20h-20v-20Zm-20 0h20v20h-20v-20Zm-40-20h20v20h-20v-20Zm0 20h20v20h-20v-20Zm-20-20h20v20H84v-20Zm0 20h20v20H84v-20Zm-20-40h20v20H64v-20Zm0 20h20v20H64v-20Zm-20-40h20v20H44v-20Zm0 20h20v20H44v-20Zm0-40h20v20H44v-20Zm-20-40h20v20H24v-20Zm0-20h20v20H24v-20Z"/><path stroke="#949494" stroke-width="5" d="M44 81h20V61H44v20Zm0 0H24v20m20-20v20m0 0H24m20 0v20m-20-20v20m0 20h20m-20 0v20m0-20v-20m20 20v20m0-20v-20m0 40H24m20 0v20m0-20h20v20m-40-20v20m20 0H24m20 0v20m0-20h20m-40 0v20h20m0 0h20m-20 0v20h20m60 20h20m-20 0v20m0-20v-20h-20m20 20h-20m40 0v20m0-20h20m-20 20h-20m20 0h20m-40 0h-20m80-20h20v20h-20m0-20v20m0-20h-20m20 20h-20m0-20v20m-60-40v20m0-20H84m20 20v20m0-20H84m20 20H84v-20m0-20v20m0-20v-20H64m20 20H64m20 20H64v-20m0-20v20m0-20v-20m-40-60h20"/><path fill="#D9D9D9" d="M64 41h20v20H64V41Zm40-20h20v20h-20V21Zm0 20h20v20h-20V41Zm20-20h20v20h-20V21Zm40 0h20v20h-20V21Zm20 0h20v20h-20V21Zm0 20h20v20h-20V41Zm20 0h20v20h-20V41Zm0 20h20v20h-20V61Zm20 0h20v20h-20V61Zm0 60h20v20h-20v-20Zm0-20h20v20h-20v-20Zm0 40h20v20h-20v-20Zm0 40h20v20h-20v-20Zm0-100h20v20h-20V81Zm0 80h20v20h-20v-20Zm20-40h20v20h-20v-20Zm0-20h20v20h-20v-20Zm0 40h20v20h-20v-20Zm0-60h20v20h-20V81Zm0 80h20v20h-20v-20Zm-40-20h20v20h-20v-20Zm0-20h20v20h-20v-20Zm0 40h20v20h-20v-20Zm0 40h20v20h-20v-20Zm-20 20h20v20h-20v-20Zm60-40h20v20h-20v-20Zm-20 20h20v20h-20v-20Zm-20 20h20v20h-20v-20ZM84 201h20v20H84v-20Zm40 20h20v20h-20v-20Zm-40-60h20v20H84v-20Zm-20 0h20v20H64v-20Zm20-20h20v20H84v-20Zm-20-20h20v20H64v-20Zm0-20h20v20H64v-20Zm20 0h20v20H84v-20ZM64 81h20v20H64V81Zm20 0h20v20H84V81ZM64 61h20v20H64V61Zm20 60h20v20H84v-20Zm0-60h20v20H84V61ZM44 81h20v20H44V81Zm0 60h20v20H44v-20Zm0-20h20v20H44v-20Zm0-20h20v20H44v-20Zm20 40h20v20H64v-20Zm20 40h20v20H84v-20Zm-20 0h20v20H64v-20Zm40 0h20v20h-20v-20Zm0 20h20v20h-20v-20Zm20 0h20v20h-20v-20Zm20 20h20v20h-20v-20Zm20 0h20v20h-20v-20Zm40-40h20v20h-20v-20ZM104 61h20v20h-20V61Zm0 40h20v20h-20v-20Zm0-20h20v20h-20V81Zm0 40h20v20h-20v-20Zm0 40h20v20h-20v-20Zm0-20h20v20h-20v-20Zm20-80h20v20h-20V61Zm0 20h20v20h-20V81Zm0 40h20v20h-20v-20Zm0-20h20v20h-20v-20Zm0 40h20v20h-20v-20Zm0 40h20v20h-20v-20Zm0-20h20v20h-20v-20Zm20-80h20v20h-20V81Zm0 20h20v20h-20v-20Zm0 40h20v20h-20v-20Zm0-20h20v20h-20v-20Zm0 40h20v20h-20v-20Zm0 40h20v20h-20v-20Zm0-20h20v20h-20v-20Zm20-80h20v20h-20v-20Zm0 20h20v20h-20v-20Zm0 40h20v20h-20v-20Zm0-20h20v20h-20v-20Zm0 60h20v20h-20v-20Zm0-20h20v20h-20v-20Zm20-60h20v20h-20v-20Zm0 20h20v20h-20v-20Zm0 40h20v20h-20v-20Zm0 20h20v20h-20v-20Zm0-40h20v20h-20v-20ZM124 41h20v20h-20V41Zm20-20h20v20h-20V21Zm-60 0h20v20H84V21Zm0 20h20v20H84V41Z"/><path stroke="#D9D9D9" stroke-width="5" d="M84 41H64v20m20-20v20m0-20h20m-20 0V21h20M84 61H64m20 0v20m0-20h20m-40 0v20m40-60h20m-20 0v20m20-20v20m0-20h20m-20 20h-20m20 0v20m0-20h20m-40 0v20m20 0h-20m20 0v20m0-20h20m-40 0v20m40-60v20m0-20h20m-20 20v20m0-20h20m0-20h20m-20 0v20m20-20v20m0-20h20v20m-20 0h-20m20 0h20m-20 0v20h20m0-20v20m0-20h20v20m-20 0h20m-20 0v20h20m0-20v20m0-20h20v20m-20 0h20m-20 0v20m20-20v20m0-20h20v20m-40 20h20m-20 0v20m0-20v-20m0 20h-20m40 0v20m0-20v-20m0 20h20m-20 20h-20m20 0v20m0-20h20m-40 0v20m0-20h-20m20-40h20m0 0h20m-20 60h-20m20 0v20m0-20h20m-40 0v20m0-20h-20m20 20h20m-20 0v20m0-20h-20m40 0v20m0-20h20m-20 20h-20m20 0h20v-20m-20 20v20h-20m0-20h-20m20 0v20m40-100v20m0-20v-20m0 40v20m0 0v20m-60-40v20m0-20v-20m0 20h-20m20 20v20m0-20h-20m20-40h-20m20 60v20m0-20h-20m20 20v20m0-20h-20m40 20h-20m20 0v20h-20m0-20h-20m20 0v20m-20-20v20m0-20h-20m20 0v-20m20 40h-20m0 0h-20m-80-40h20m-20 0v20h20m-20-20v-20m0 20H64v-20m40 20v20m0-20v-20m0 20h20m-20 20h20m0 0h20m-20 0v20h20m-20-20v-20m20 20v20m0-20v-20m0 20h20m-20 20h20m-80-80h20m-20 0v20m0-20H64m20 0v-20m20 20v20m0-20v-20m0 20h20m-20 20H84m20 0h20m-40 0H64m0-20v20m0-20v-20m0 20H44v-20m40 0h20m-20 0v-20m0 20H64m40 0v-20m0 20h20m-60-20h20m-20 0v20m0-20v-20m0 20H44m40 0v-20m0 20h20m-40 20H44m20-40h20m-20 0V81m0 20H44m40 0h20m-20 0V81m20 20v20m0-20V81m0 20h20m-20 20h20M64 81h20m-20 0H44v20m40-20h20m0 0h20m-80 20v20m0 20v-20m80 60v20m0-20v-20m0 20h20m-20 20h20m0 0v-20m0 20h20m0 20v20m0-20v-20M124 81v20m0-20h20m-20 20v20m0-20h20m-20 20v20m0-20h20m-20 20v20m0-20h20m-20 20h20m0-100v20m0 0v20m0-20h20v20m-20 0v20m0-20h20m-20 20v20m0-20h20m-20 20v20m0-20h20m-20 20v20m0-20h20m-20 20h20m0-80v20m0-20h20v20m-20 0v20m0-20h20m-20 20v20m0-20h20m-20 20v20m0-20h20m-20 20v20m0-20h20m-20 20h20m0-80v20m0 0v20m0 0v20m0 0v20"/></svg>

<svg width="291" height="287" viewBox="0 0 291 287" fill="none" xmlns="http://www.w3.org/2000/svg">
<path d="M164 41H184V61H164V41Z" fill="#EDEDED"/>
<path d="M164 61H184V81H164V61Z" fill="#EDEDED"/>
<path d="M184 81H204V101H184V81Z" fill="#EDEDED"/>
<path d="M184 61H204V81H184V61Z" fill="#EDEDED"/>
<path d="M204 81H224V101H204V81Z" fill="#EDEDED"/>
<path d="M204 101H224V121H204V101Z" fill="#EDEDED"/>
<path d="M184 101H204V121H184V101Z" fill="#EDEDED"/>
<path d="M164 81H184V101H164V81Z" fill="#EDEDED"/>
<path d="M144 61H164V81H144V61Z" fill="#EDEDED"/>
<path d="M144 41H164V61H144V41Z" fill="#EDEDED"/>
<path d="M164 41H184V61M164 41V61M164 41H144V61M184 61H164M184 61V81M184 61H204V81M164 61V81M164 61H144M184 81H164M184 81H204M184 81V101M164 81V101H184M164 81H144V61M204 81V101M204 81H224V101M204 101H184M204 101H224M204 101V121M184 101V121H204M224 101V121H204" stroke="#EDEDED" stroke-width="5"/>
<path d="M44 61H64V81H44V61Z" fill="#949494"/>
<path d="M24 81H44V101H24V81Z" fill="#949494"/>
<path d="M24 141H44V161H24V141Z" fill="#949494"/>
<path d="M24 161H44V181H24V161Z" fill="#949494"/>
<path d="M24 181H44V201H24V181Z" fill="#949494"/>
<path d="M124 241H144V261H124V241Z" fill="#949494"/>
<path d="M184 241H204V261H184V241Z" fill="#949494"/>
<path d="M164 241H184V261H164V241Z" fill="#949494"/>
<path d="M144 241H164V261H144V241Z" fill="#949494"/>
<path d="M104 221H124V241H104V221Z" fill="#949494"/>
<path d="M104 241H124V261H104V241Z" fill="#949494"/>
<path d="M84 221H104V241H84V221Z" fill="#949494"/>
<path d="M84 241H104V261H84V241Z" fill="#949494"/>
<path d="M64 201H84V221H64V201Z" fill="#949494"/>
<path d="M64 221H84V241H64V221Z" fill="#949494"/>
<path d="M44 181H64V201H44V181Z" fill="#949494"/>
<path d="M44 201H64V221H44V201Z" fill="#949494"/>
<path d="M44 161H64V181H44V161Z" fill="#949494"/>
<path d="M24 121H44V141H24V121Z" fill="#949494"/>
<path d="M24 101H44V121H24V101Z" fill="#949494"/>
<path d="M44 81H64V61H44V81ZM44 81H24V101M44 81V101M44 101H24M44 101V121M24 101V121M24 141H44M24 141V161M24 141V121M44 141V161M44 141V121M44 161H24M44 161V181M44 161H64V181M24 161V181M44 181H24M44 181V201M44 181H64M24 181V201H44M44 201H64M44 201V221H64M124 241H144M124 241V261M124 241V221H104M124 241H104M144 241V261M144 241H164M144 261H124M144 261H164M124 261H104M184 241H204V261H184M184 241V261M184 241H164M184 261H164M164 241V261M104 221V241M104 221H84M104 241V261M104 241H84M104 261H84V241M84 221V241M84 221V201H64M84 221H64M84 241H64V221M64 201V221M64 201V181M24 121H44" stroke="#949494" stroke-width="5"/>
<path d="M64 41H84V61H64V41Z" fill="#D9D9D9"/>
<path d="M104 21H124V41H104V21Z" fill="#D9D9D9"/>
<path d="M104 41H124V61H104V41Z" fill="#D9D9D9"/>
<path d="M124 21H144V41H124V21Z" fill="#D9D9D9"/>
<path d="M164 21H184V41H164V21Z" fill="#D9D9D9"/>
<path d="M184 21H204V41H184V21Z" fill="#D9D9D9"/>
<path d="M184 41H204V61H184V41Z" fill="#D9D9D9"/>
<path d="M204 41H224V61H204V41Z" fill="#D9D9D9"/>
<path d="M204 61H224V81H204V61Z" fill="#D9D9D9"/>
<path d="M224 61H244V81H224V61Z" fill="#D9D9D9"/>
<path d="M224 121H244V141H224V121Z" fill="#D9D9D9"/>
<path d="M224 101H244V121H224V101Z" fill="#D9D9D9"/>
<path d="M224 141H244V161H224V141Z" fill="#D9D9D9"/>
<path d="M224 181H244V201H224V181Z" fill="#D9D9D9"/>
<path d="M224 81H244V101H224V81Z" fill="#D9D9D9"/>
<path d="M224 161H244V181H224V161Z" fill="#D9D9D9"/>
<path d="M244 121H264V141H244V121Z" fill="#D9D9D9"/>
<path d="M244 101H264V121H244V101Z" fill="#D9D9D9"/>
<path d="M244 141H264V161H244V141Z" fill="#D9D9D9"/>
<path d="M244 81H264V101H244V81Z" fill="#D9D9D9"/>
<path d="M244 161H264V181H244V161Z" fill="#D9D9D9"/>
<path d="M204 141H224V161H204V141Z" fill="#D9D9D9"/>
<path d="M204 121H224V141H204V121Z" fill="#D9D9D9"/>
<path d="M204 161H224V181H204V161Z" fill="#D9D9D9"/>
<path d="M204 201H224V221H204V201Z" fill="#D9D9D9"/>
<path d="M184 221H204V241H184V221Z" fill="#D9D9D9"/>
<path d="M244 181H264V201H244V181Z" fill="#D9D9D9"/>
<path d="M224 201H244V221H224V201Z" fill="#D9D9D9"/>
<path d="M204 221H224V241H204V221Z" fill="#D9D9D9"/>
<path d="M84 201H104V221H84V201Z" fill="#D9D9D9"/>
<path d="M124 221H144V241H124V221Z" fill="#D9D9D9"/>
<path d="M84 161H104V181H84V161Z" fill="#D9D9D9"/>
<path d="M64 161H84V181H64V161Z" fill="#D9D9D9"/>
<path d="M84 141H104V161H84V141Z" fill="#D9D9D9"/>
<path d="M64 121H84V141H64V121Z" fill="#D9D9D9"/>
<path d="M64 101H84V121H64V101Z" fill="#D9D9D9"/>
<path d="M84 101H104V121H84V101Z" fill="#D9D9D9"/>
<path d="M64 81H84V101H64V81Z" fill="#D9D9D9"/>
<path d="M84 81H104V101H84V81Z" fill="#D9D9D9"/>
<path d="M64 61H84V81H64V61Z" fill="#D9D9D9"/>
<path d="M84 121H104V141H84V121Z" fill="#D9D9D9"/>
<path d="M84 61H104V81H84V61Z" fill="#D9D9D9"/>
<path d="M44 81H64V101H44V81Z" fill="#D9D9D9"/>
<path d="M44 141H64V161H44V141Z" fill="#D9D9D9"/>
<path d="M44 121H64V141H44V121Z" fill="#D9D9D9"/>
<path d="M44 101H64V121H44V101Z" fill="#D9D9D9"/>
<path d="M64 141H84V161H64V141Z" fill="#D9D9D9"/>
<path d="M84 181H104V201H84V181Z" fill="#D9D9D9"/>
<path d="M64 181H84V201H64V181Z" fill="#D9D9D9"/>
<path d="M104 181H124V201H104V181Z" fill="#D9D9D9"/>
<path d="M104 201H124V221H104V201Z" fill="#D9D9D9"/>
<path d="M124 201H144V221H124V201Z" fill="#D9D9D9"/>
<path d="M144 221H164V241H144V221Z" fill="#D9D9D9"/>
<path d="M164 221H184V241H164V221Z" fill="#D9D9D9"/>
<path d="M204 181H224V201H204V181Z" fill="#D9D9D9"/>
<path d="M104 61H124V81H104V61Z" fill="#D9D9D9"/>
<path d="M104 101H124V121H104V101Z" fill="#D9D9D9"/>
<path d="M104 81H124V101H104V81Z" fill="#D9D9D9"/>
<path d="M104 121H124V141H104V121Z" fill="#D9D9D9"/>
<path d="M104 161H124V181H104V161Z" fill="#D9D9D9"/>
<path d="M104 141H124V161H104V141Z" fill="#D9D9D9"/>
<path d="M124 61H144V81H124V61Z" fill="#D9D9D9"/>
<path d="M124 81H144V101H124V81Z" fill="#D9D9D9"/>
<path d="M124 121H144V141H124V121Z" fill="#D9D9D9"/>
<path d="M124 101H144V121H124V101Z" fill="#D9D9D9"/>
<path d="M124 141H144V161H124V141Z" fill="#D9D9D9"/>
<path d="M124 181H144V201H124V181Z" fill="#D9D9D9"/>
<path d="M124 161H144V181H124V161Z" fill="#D9D9D9"/>
<path d="M144 81H164V101H144V81Z" fill="#D9D9D9"/>
<path d="M144 101H164V121H144V101Z" fill="#D9D9D9"/>
<path d="M144 141H164V161H144V141Z" fill="#D9D9D9"/>
<path d="M144 121H164V141H144V121Z" fill="#D9D9D9"/>
<path d="M144 161H164V181H144V161Z" fill="#D9D9D9"/>
<path d="M144 201H164V221H144V201Z" fill="#D9D9D9"/>
<path d="M144 181H164V201H144V181Z" fill="#D9D9D9"/>
<path d="M164 101H184V121H164V101Z" fill="#D9D9D9"/>
<path d="M164 121H184V141H164V121Z" fill="#D9D9D9"/>
<path d="M164 161H184V181H164V161Z" fill="#D9D9D9"/>
<path d="M164 141H184V161H164V141Z" fill="#D9D9D9"/>
<path d="M164 201H184V221H164V201Z" fill="#D9D9D9"/>
<path d="M164 181H184V201H164V181Z" fill="#D9D9D9"/>
<path d="M184 121H204V141H184V121Z" fill="#D9D9D9"/>
<path d="M184 141H204V161H184V141Z" fill="#D9D9D9"/>
<path d="M184 181H204V201H184V181Z" fill="#D9D9D9"/>
<path d="M184 201H204V221H184V201Z" fill="#D9D9D9"/>
<path d="M184 161H204V181H184V161Z" fill="#D9D9D9"/>
<path d="M124 41H144V61H124V41Z" fill="#D9D9D9"/>
<path d="M144 21H164V41H144V21Z" fill="#D9D9D9"/>
<path d="M84 21H104V41H84V21Z" fill="#D9D9D9"/>
<path d="M84 41H104V61H84V41Z" fill="#D9D9D9"/>
<path d="M84 41H64V61M84 41V61M84 41H104M84 41V21H104M84 61H64M84 61V81M84 61H104M64 61V81M104 21H124M104 21V41M124 21V41M124 21H144M124 41H104M124 41V61M124 41H144M104 41V61M124 61H104M124 61V81M124 61H144M104 61V81M144 21V41M144 21H164M144 41V61M144 41H164M164 21H184M164 21V41M184 21V41M184 21H204V41M184 41H164M184 41H204M184 41V61H204M204 41V61M204 41H224V61M204 61H224M204 61V81H224M224 61V81M224 61H244V81M224 81H244M224 81V101M244 81V101M244 81H264V101M224 121H244M224 121V141M224 121V101M224 121H204M244 121V141M244 121V101M244 121H264M244 141H224M244 141V161M244 141H264M224 141V161M224 141H204M224 101H244M244 101H264M244 161H224M244 161V181M244 161H264M224 161V181M224 161H204M224 181H244M224 181V201M224 181H204M244 181V201M244 181H264M244 201H224M244 201H264V181M244 201V221H224M224 201H204M224 201V221M264 121V141M264 121V101M264 141V161M264 161V181M204 141V161M204 141V121M204 141H184M204 161V181M204 161H184M204 121H184M204 181V201M204 181H184M204 201V221M204 201H184M224 221H204M224 221V241H204M204 221H184M204 221V241M184 221V241M184 221H164M184 221V201M204 241H184M184 241H164M84 201H104M84 201V221H104M84 201V181M84 201H64V181M104 201V221M104 201V181M104 201H124M104 221H124M124 221H144M124 221V241H144M124 221V201M144 221V241M144 221V201M144 221H164M144 241H164M84 161H104M84 161V181M84 161H64M84 161V141M104 161V181M104 161V141M104 161H124M104 181H84M104 181H124M84 181H64M64 161V181M64 161V141M64 161H44V141M84 141H104M84 141V121M84 141H64M104 141V121M104 141H124M64 121H84M64 121V141M64 121V101M64 121H44M84 121V101M84 121H104M64 141H44M64 101H84M64 101V81M64 101H44M84 101H104M84 101V81M104 101V121M104 101V81M104 101H124M104 121H124M64 81H84M64 81H44V101M84 81H104M104 81H124M44 101V121M44 141V121M124 181V201M124 181V161M124 181H144M124 201H144M144 201V181M144 201H164M164 221V241M164 221V201M124 81V101M124 81H144M124 101V121M124 101H144M124 121V141M124 121H144M124 141V161M124 141H144M124 161H144M144 61V81M144 81V101M144 81H164V101M144 101V121M144 101H164M144 121V141M144 121H164M144 141V161M144 141H164M144 161V181M144 161H164M144 181H164M164 101V121M164 101H184V121M164 121V141M164 121H184M164 141V161M164 141H184M164 161V181M164 161H184M164 181V201M164 181H184M164 201H184M184 121V141M184 141V161M184 161V181M184 181V201" stroke="#D9D9D9" stroke-width="5"/>
</svg>
